X:1
T:Laus sit Deo 2
T:André Vierendeels
T:(01/03/18)
T:Early melody
T:Laus sit Deo 2
T:ad voces aequales
T:©
T:©
T:©
T:©
C:André Vierendeels
Z:©
%%score [ 1 2 3 ]
L:1/8
Q:1/4=120
M:2/2
K:C
V:1 treble-8 nm="Tenor 1" snm="T 1"
V:2 treble-8 nm="Tenor 2" snm="T 2"
V:3 bass nm="Bass" snm="B"
V:1
 z4 E4 | A4 B4 | c4 B4 | A8 | !fermata!G4 G4 | c4 c4 | d4 d4 | !fermata!e4 d4 | e4 e4 | e4 d4 | %10
w: Laus|sit De-|o pa-|ren-|ti, De-|o ter|op- ti-|mo, laus|sit pa-|ren- tis|
 e8 | !fermata!c4 d4 | e4 e4 | d4 d4 | !fermata!c4 c4 | d4 c4 | d4 d4 | e8 | !fermata!e4 c4 | %19
w: gna-|to per-|en- nis|u- ni-|co, spi-|ra- mi-|ni- que|sa-|cro con-|
 d4 d4 | c4 B4 | A8 | !fermata!G4 G4 | B4 c4 | d2 d2 d4 | e8 | !fermata!e4 c4 | d4 c4 | B4 A4 | %29
w: di- gna|glo- *|ri-|a, u-|ni De-|o at- que|tri-|no per|cun- cta|sae- cu-|
 !fermata!e8 | c4 c2 c2 | B4 B4 | A8 |] %33
w: la,|Ky- ri- e,|e- lei-|son.|
V:2
 z4 E4 | F4 G4 | E2 G4 E2- | E2 G4 ^F2 | !fermata!D4 E4 | A4 E4 | A2 D4 G2 | !fermata!G4 B4 | %8
w: Laus|sit De-|o pa- ren-||ti, De-|o ter|op- ti- *|mo, laus|
 G4 c4 | G4 B4 | c4 A2 B2 | !fermata!A4 F4 | G4 A4 | ^F4 G4 | !fermata!E4 E4 | G4 G4 | B4 A4 | %17
w: sit pa-|ren- tis|gna- * *|to per-|en- nis|u- ni-|co, spi-|ra- mi-|ni- que|
 ^G2 A4 B2 | !fermata!^c4 E4 | ^F4 B4 | G2 E4 D2- | D2 E^F G2 F2 | !fermata!D4 E4 | D4 A4 | %24
w: sa- * *|cro con|di- gna|glo- * *|* * * * ri-|a,, u-|ni De-|
 A2 ^F2 G4 | G4 A4 | !fermata!B4 A2 E2 | F4 A4 | F4 A4 | !fermata!^G8 | E4 A2 A2- | A2 ^F^G A2 G2 | %32
w: o at- que|tri- *|no per _|cun- cta|sae- cu-|la,|Ky- ri- e,|_ e- * * lei-|
 E8 |] %33
w: son.|
V:3
 z4 A,,4 | F,,2 C,2 G,,4 | C,2 D,4 E,2 | C,2 D,4 C,2 | !fermata!B,,4 C,4 | F,,4 A,,4 | %6
w: Laus|sit _ De-|o pa- ren-||ti, De-|o ter|
 D,2 B,,2 G,,4 | !fermata!C,4 G,4 | C,4 A,,4 | C,4 G,,4 | A,,4 C,2 G,2 | !fermata!F,4 D,4 | %12
w: op- ti- *|mo, laus|sit pa-|ren- tis|gna- * *|to, per-|
 C,4 A,,4 | D,4 B,,4 | !fermata!C,4 A,,4 | B,,4 C,4 | G,,2 G,2 F,4 | E,8 | !fermata!A,4 A,,4 | %19
w: en- nis|u- ni-|co, spi-|ra- mi-|mi- * que|sa-|cro con|
 D,4 G,4 | C,4 G,,4 | D,8 | !fermata!G,,4 C,4 | G,,4 F,,4 | D,2 D,2 G,,4 | C,4 A,,4 | %26
w: di- gna|glo- *|ri-|a, u-|ni De-|o at- que|tri- *|
 !fermata!E,4 A,,4 | D,4 E,4 | D,4 F,4 | !fermata!E,8 | C,4 A,,2 A,,2 | E,4 E,4 | A,,8 |] %33
w: no per-|cun- cta|sae- cu-|la,|Ky- ri- e,|e- lei-|son.|

